X:1
T:Title
%%score ( 1 2 3 ) ( 4 5 ) { 6 | ( 7 8 ) }
L:1/8
Q:1/4=94
M:4/4
K:Eb
V:1 treble nm="French Horn, Soprano"
V:2 treble 
V:3 treble 
V:4 treble nm="Drawbar Organ, Staff-1"
V:5 treble 
V:6 bass nm="Drawbar Organ, Patience, J. H. Rogers 1914"
V:7 bass 
V:8 bass 
V:1
 [GB]2 [GB]2- [GB][Ee]dc | B-[GB] [F=A]2 [EA]2 [DB]2 | [DF]2 [_DF][DF] [DF][FG]Ac | c-[Bc] [Ac]6 | %4
w: By~James~H.~Rogers,~1914 * * * * *||||
 [Bd]2 [Bd]2- [Bd][Bd] [Bd]2 | B2 B2 [Bd]2 [Be]2 | =B-[FB][Ec][ce] [cg][Ge] [Gd]2 | [_Gc]2 [=GB]6 | %8
w: ||||
 [Bd]2 [=Ad]2 [Ac]2 B2 | [Gd]2 d2- d/ z/ c B2 | z4 z2 f2- | f z z2 z4 | z4 z2 .d2 | B2 z2 z4 | %14
w: ||||||
 [DB]2 [Ee][EB] [FB][GB] [Ac]2 | [DA]2 [EG]6- | [EG]2 z2 z4 |] %17
w: |||
V:2
 z4 z2 E2 | .E2 z2 z4 | z4 z2 F2 | .=E2 z2 z4 | x8 | x8 | .G2 z2 z4 | x8 | x8 | z2 =A2 A2 z2 | %10
 [Dd]2 [Dd][Dd] [Ee][=Ed]FG | z e [Bd]6 | [DB]2 [EB]2- [EB][Ee]E-[Ec] | EG [F=A]2 [EA]2 [DB]2 | %14
 x8 | x8 | x8 |] %17
V:3
 x8 | x8 | x8 | x8 | x8 | x8 | x8 | x8 | x8 | x8 | x8 | =A2 z2 z4 | x8 | x8 | x8 | x8 | x8 |] %17
V:4
 z4 z2 .B2 | [EG]2 E2 [EF]2 [DF]2 | F2 FF F[FG] [FA]2 | [EG]2 F6 | [DF]2 [DF]2- [DF][DF] [DG]2 | %5
 [DG]2 [DA]2 [DA]2 [EG]2 | [FG]2 [EG][EG] [Ee][Ec] [DB]2 | [C=A]2 [B,G]6 | %8
 [DG]2 [D=A]2 [DA]2 [DG]2 | [DB]2 [D=A]2 [DA]2 [DG]2 | D2 DD [CE][C=E] [CF]2 | [EF]2 [DF]6 | %12
 z4 z2 .B2 | [EG]2 E2 [EF]2 [DF]2 | [DF]2 [EB]E [DA][EG] [EF]2 | [DF]2 E6- | E2 z2 z4 |] %17
V:5
 [EG]2 [EG]2- [EG][EG]E-[EA] | x8 | x8 | x8 | x8 | x8 | x8 | x8 | x8 | x8 | x8 | x8 | %12
 [D_G]2 [E=G]2- [EG][EG]E-[EA] | x8 | x8 | x8 | x8 |] %17
V:6
 B,2 B,2- B,EDC | B,2 =A,2 A,2 B,2 | D2 _DD DD C2 | B,2 A,6 | B,2 B,2- B,B, B,2 | B,2 B,2 B,2 B,2 | %6
 =B,2 CC G,G, G,2 | _G,2 =G,6 | B,2[K:treble] C2 C2 B,2 | G,2 C2 C2[K:bass] B,2 | %10
 B,2 B,B, B,B, B,2 | =A,2 B,6 | B,2 B,2- B,[K:treble]EDC | B,2 .=A,4[K:bass] B,2 | %14
 B,2 B,B, B,B, C2 | A,2 G,6- | G,2 z2 z4 |] %17
V:7
 E,2 E,2- E,E, E,2 | E,2 C,2 C,2 B,,2 | [B,,B,]2 [B,,B,][B,,B,] [B,,B,][B,,B,] C,2 | C,2 F,6 | %4
 A,2 A,2- A,A, G,2 | G,2 F,2 F,2 E,2 | D,2 C,C, C,C, D,2 | D,2 z2 z4 | G,2 _G,2 =E,G, =G,2 | %9
 D,2 =E,2 _G,2 =G,2 | [=E,G,]2 [D,G,][D,G,] [_E,_G,][=E,G,] F,2 | [F,,F,]2 B,,6 | %12
 B,,2 E,2- E,E, E,2 | E,2 C,2 z =A, B,,2 | [A,,A,]2 [G,,G,]G, F,E, A,,2 | B,,2 E,6- | E,2 z2 z4 |] %17
V:8
 x8 | x8 | x8 | x8 | x8 | x8 | x8 | x8 | x8 | x8 | x8 | x8 | x8 | z4 C,2 z2 | x8 | x8 | x8 |] %17

